X:1
T:[ID 5-50]
T:[ID 5-50]
T:Bezeichnung standardisiert: Menuett Menuet
T:Urheber unbekannt Datum in der hier transkribierten schriftlichen Quelle: 1773
C:Urheber unbekannt
C:Datum in der hier transkribierten schriftlichen Quelle: 1773
L:1/8
M:3/4
K:G
V:1 treble 
V:1
 G4 AF | B4 cA | BG gfed | c4 B2 | e4 (3gfe | df g2 d2 | (3efg c2 B2 | A6 :: d4 e^c | f4 ge | %10
 fd afd=c |{d} c4{Bc} B2 | e2 cege | dB g2 d=f | (3edc B2 A2 | G6 :| %16

